X: 4211
T: Miss Wardlaw's    Strathspey
%R: strathspey
B: Niel Gow & Sons "A Fourth Collection of Strathspey Reels, etc." v.4 p.21 #1 (top 6 staves continued from p.20)
Z: 2022 John Chambers <jc:trillian.mit.edu>
M: C
L: 1/8
K: F
% - - - - - - - - - -
% Voice 1 reformatted for _ _-bar lines, for compactness and proofreading.
V: 1 staves=2
|:\
F>c A/B/c/A/ dGBd | Fc A/B/c/A/ Ffa>f |\
g>ef>A TG>AB<d |1 cf a/g/f/e/ fF A<f :|2 c>f e/f/g/e/ fFAc |]|\
(f/g/a/g/ f)>.F Gg-g>a |
(f/g/a/)g/ f>c d<fTc>A |\
(B/c/d) (A/B/c) G(gg>a) | Tf>g {fg}a>g fFA<c ||\
(f/g/a/g/) f>F G(gg>a) | (3(fga) (3{a}.g.f.e (3def (3cBA |\
(3Bcd (3ABc G(gg>a) | Tf>g {fg}a>g fF A<f |]
% - - - - - - - - - -
% Voice 2 preserves the staff layout in the book.
V: 2 clef=bass middle=d
|:\
[f2a2c'2][f2a2c'2] [g2b2d'2][g2b2d'2] | [f2a2c'2][f2a2c'2] [f2a2c'2][f2a2c'2] | e2f2 c'2b2 |1 f2c'2 f2f2 :|2 a2c'2 f2f2 |]| f2f2 e2c2 |
f2a2 b2a2 | g2f2 e2c2 | f2c2 F2F2 || f2f2 e2c2 | f2c'2 b2a2 | g2f2 e2c2 | f2c2 F2F2 |]


